img/logos/bootstrap.svg

<?xml version="1.0" encoding="UTF-8" standalone="no" ?>
<svg width="256px" height="256px" viewBox="0 0 256 256" version="1.1" xmlns="http://www.w3.org/2000/svg" xmlns:xlink="http://www.w3.org/1999/xlink" preserveAspectRatio="xMinYMin meet">
    <g>
        <path d="M0,222.991225 C0,241.223474 14.7785318,256 33.0087747,256 L222.991225,256 C241.223474,256 256,241.221468 256,222.991225 L256,33.0087747 C256,14.7765263 241.221468,0 222.991225,0 L33.0087747,0 C14.7765263,0 0,14.7785318 0,33.0087747 L0,222.991225 Z" fill="#563D7C"></path>
        <path d="M106.157563,113.238095 L106.157563,76.9845938 L138.069328,76.9845938 C141.108559,76.9845938 144.039202,77.2378593 146.861345,77.7443978 C149.683488,78.2509362 152.179961,79.1554557 154.35084,80.4579832 C156.52172,81.7605107 158.258397,83.5695496 159.560924,85.8851541 C160.863452,88.2007585 161.514706,91.1675823 161.514706,94.7857143 C161.514706,101.298352 159.560944,106.001853 155.653361,108.896359 C151.745779,111.790864 146.752832,113.238095 140.67437,113.238095 L106.157563,113.238095 L106.157563,113.238095 Z M72.07493,50.5 L72.07493,205.5 L147.186975,205.5 C154.133788,205.5 160.899594,204.631661 167.484594,202.894958 C174.069594,201.158255 179.93088,198.480877 185.068627,194.862745 C190.206375,191.244613 194.294803,186.577293 197.334034,180.860644 C200.373264,175.143996 201.892857,168.37819 201.892857,160.563025 C201.892857,150.866431 199.541107,142.581033 194.837535,135.706583 C190.133963,128.832132 183.00635,124.020088 173.454482,121.270308 C180.401295,117.941627 185.647508,113.672295 189.193277,108.462185 C192.739047,103.252075 194.511905,96.7395349 194.511905,88.9243697 C194.511905,81.6881057 193.317939,75.6097352 190.929972,70.6890756 C188.542005,65.7684161 185.177193,61.8247114 180.835434,58.8578431 C176.493676,55.8909749 171.283644,53.756309 165.205182,52.4537815 C159.12672,51.151254 152.397096,50.5 145.016106,50.5 L72.07493,50.5 L72.07493,50.5 Z M106.157563,179.015406 L106.157563,136.466387 L143.279412,136.466387 C150.660401,136.466387 156.594049,138.166883 161.080532,141.567927 C165.567016,144.968971 167.810224,150.649353 167.810224,158.609244 C167.810224,162.661552 167.122789,165.990183 165.747899,168.595238 C164.373009,171.200293 162.527789,173.262597 160.212185,174.782213 C157.89658,176.301828 155.219203,177.387252 152.179972,178.038515 C149.140741,178.689779 145.956833,179.015406 142.628151,179.015406 L106.157563,179.015406 L106.157563,179.015406 Z" fill="#FFFFFF"></path>
    </g>
</svg>

<svg width="256" height="256" viewBox="0 0 256 256" xmlns="http://www.w3.org/2000/svg" preserveAspectRatio="xMinYMin meet"><path d="M0 222.99C0 241.224 14.78 256 33.01 256h189.98c18.233 0 33.01-14.78 33.01-33.01V33.01C256 14.776 241.22 0 222.99 0H33.01C14.776 0 0 14.78 0 33.01v189.98z" fill="#563D7C"/><path d="M106.158 113.238V76.985h31.91c3.04 0 5.97.253 8.793.76 2.823.506 5.32 1.41 7.49 2.713 2.172 1.303 3.908 3.112 5.21 5.427 1.303 2.316 1.955 5.283 1.955 8.9 0 6.513-1.954 11.217-5.862 14.11-3.907 2.896-8.9 4.343-14.98 4.343H106.16zM72.075 50.5v155h75.112c6.947 0 13.713-.868 20.298-2.605 6.585-1.737 12.446-4.414 17.584-8.032 5.136-3.618 9.225-8.286 12.264-14.002 3.04-5.716 4.56-12.482 4.56-20.297 0-9.697-2.353-17.982-7.056-24.856-4.704-6.875-11.832-11.687-21.384-14.437 6.947-3.328 12.194-7.598 15.74-12.808 3.545-5.21 5.318-11.722 5.318-19.538 0-7.236-1.194-13.314-3.582-18.235-2.388-4.922-5.753-8.865-10.095-11.832-4.34-2.967-9.55-5.102-15.63-6.404-6.078-1.303-12.808-1.954-20.19-1.954h-72.94zm34.083 128.515v-42.55h37.12c7.382 0 13.316 1.702 17.803 5.103 4.487 3.4 6.73 9.08 6.73 17.04 0 4.054-.687 7.382-2.062 9.987-1.375 2.605-3.22 4.668-5.536 6.187-2.315 1.52-4.993 2.605-8.032 3.257-3.04.65-6.223.975-9.552.975h-36.47z" fill="#FFF"/></svg>
